src/lib/packages/icons/src/assets/line/chart-line-down.svg

<svg width="24" height="24" viewBox="0 0 24 24" fill="none" xmlns="http://www.w3.org/2000/svg">
<path d="M21.75 20C21.75 20.414 21.414 20.75 21 20.75H4.5C3.091 20.75 2.25 19.909 2.25 18.5V4C2.25 3.586 2.586 3.25 3 3.25C3.414 3.25 3.75 3.586 3.75 4V18.5C3.75 19.089 3.911 19.25 4.5 19.25H21C21.414 19.25 21.75 19.586 21.75 20ZM9.765 10.826C10.445 11.5061 11.554 11.508 12.235 10.83L13.841 9.23499C13.939 9.13799 14.097 9.13896 14.195 9.23596L18.194 13.25H17C16.586 13.25 16.25 13.586 16.25 14C16.25 14.414 16.586 14.75 17 14.75H20C20.098 14.75 20.195 14.73 20.286 14.692C20.367 14.658 20.439 14.6069 20.502 14.549C20.51 14.542 20.521 14.539 20.528 14.531C20.597 14.462 20.652 14.379 20.69 14.287C20.728 14.195 20.748 14.098 20.748 14.001C20.748 14.001 20.748 14.001 20.748 14V11C20.748 10.586 20.412 10.25 19.998 10.25C19.584 10.25 19.248 10.586 19.248 11V12.1851L15.255 8.17798C14.574 7.49498 13.465 7.49302 12.782 8.17102L11.176 9.76599C11.079 9.86299 10.921 9.86299 10.823 9.76599L7.528 6.47095C7.235 6.17795 6.76 6.17795 6.467 6.47095C6.174 6.76395 6.174 7.23898 6.467 7.53198L9.765 10.826Z" fill="currentColor"/>
</svg>

<svg xmlns="http://www.w3.org/2000/svg" width="24" height="24" fill="none"><path fill="currentColor" d="M21.75 20a.75.75 0 0 1-.75.75H4.5c-1.409 0-2.25-.841-2.25-2.25V4a.75.75 0 0 1 1.5 0v14.5c0 .589.161.75.75.75H21a.75.75 0 0 1 .75.75ZM9.765 10.826c.68.68 1.789.682 2.47.004l1.606-1.595a.252.252 0 0 1 .354.001l3.999 4.014H17a.75.75 0 0 0 0 1.5h3c.098 0 .195-.02.286-.058a.755.755 0 0 0 .216-.143c.008-.007.019-.01.026-.018a.749.749 0 0 0 .22-.53V11a.75.75 0 0 0-1.5 0v1.185l-3.993-4.007a1.753 1.753 0 0 0-2.473-.007l-1.606 1.595a.25.25 0 0 1-.353 0L7.528 6.471a.75.75 0 1 0-1.061 1.061l3.298 3.294Z"/></svg>
